X:214
T:Thomas You Cannot. (p)1670.PLFD.214
M:6/4
L:1/4
Q:3/4=75
S:Playford, Dancing Master,4th Ed.,1670.
O:England
H:1670.
Z:Chris Partington
K:G
G|B>cde2d|g>fed2c|B>cBA2G|gg2-g2:|
|:g|f>gaa2g|f>gfe2d|f>gaa2A|ccBA2e|f>gaa2f|
f2ed2c|B>cBA2G|ggdggc|B>cBA2G|gg2-g2:|
